X: 7378
T:the Lochmaben hornpipe
R:Hornpipe
O:Scotland
M:4/4
K:D
FE|\
D2d2 d2cd|ecAc d2de|fdfd gege|afdf e2FE|\
D2d2 d2cd|ecAc d2cd|
efed cBA^G|A2A2 A2::\
fg|\
agfe dedc|B2G2 G2ga|
bagf efed|c2A2 A2fg|\
afaf gbgb|afaf gbgb|afbg fedc|d2f2 d2:|
